!!!OTL: "Der reiche Schlemmer" ALS LAZARUS AUF DEM MISTE LAG UND SCHLIEF
!!!ARE: Europa, Mitteleuropa, Deutschland, Niederrhein
!!!SCT: Z1030
!!!YEM: Copyright 1995, estate of Helmut Schaffrath.
**kern
*ICvox
*Ivox
*M4/4
*k[]
*a:
{4e
=1
8.a
16g#
8a
2ee
8dd
=2
8ee
8ee
8dd
8ccn
4b}
{8b
8ccn
=3
4dd
4dd
4ee
8b
8ccn
=4
8dd
8ccn
8b
8a
4g#}
{4e
=5
8.a
16a
8a
8b
4ccn
8b
8a
=6
2b
2e
=7
4.ccn
8dd
4ee}
{4dd
=8
4ee
8b
8ccn
4dd
4ee
=9
2b
4a}
==
!!!AGN: Romanze, Ballade, Tod, geistlich, Sage (Hl. Lazarus)
!!!ONB: ESAC (Essen Associative Code) Database: ZUCCAL
!!!AMT: simple quadruple
!!!AIN: vox
!!!EED: Helmut Schaffrath
!!!EEV: 1.0
*-
